X:1
L:1/8
Q:1/2=120
M:2/2
K:D
 DEFG A2 F2 | B2 E2 G2 B2 | DEFG A2 F2 | B2 G2 A2 F2 | G2 B2 F2 A2 | E2 C2 C2 E2 | fgag efge | 
 d2 A2 F2 A2 :: f2 d2 fgaf | e2 c2 efge | f2 d2 fgaf | f2 d2 fgaf | g2 b2 f2 a2 | e2 c2 efge | 
 fgaf efge | d2 A2 F2 A2 :|
